tools/download-figma-icons/icons/outlined-large/e-scooter.svg

<svg width="64" height="64" viewBox="0 0 64 64" fill="none" xmlns="http://www.w3.org/2000/svg">
<path fill-rule="evenodd" clip-rule="evenodd" d="M51.237 56.1072C51.237 58.7992 53.427 60.9892 56.118 60.9892C58.81 60.9892 61 58.7992 61 56.1072C61 53.4812 58.911 51.3472 56.309 51.2452L57.562 55.7012C57.786 56.4992 57.322 57.3272 56.524 57.5512C56.388 57.5902 56.252 57.6072 56.117 57.6072C55.462 57.6072 54.86 57.1752 54.674 56.5132L53.418 52.0462C52.105 52.9222 51.237 54.4142 51.237 56.1072ZM60.1 29.0102L55.634 13.1772L46.345 15.7982L50.132 29.2702L50.798 31.6322L60.1 29.0102ZM4.30498 56.1072C4.30498 58.7992 6.49498 60.9892 9.18698 60.9892C11.321 60.9892 13.119 59.6042 13.782 57.6932H9.21598C8.38798 57.6932 7.71598 57.0212 7.71598 56.1932C7.71598 55.3652 8.38798 54.6932 9.21598 54.6932H13.836C13.225 52.6942 11.384 51.2252 9.18698 51.2252C6.49498 51.2252 4.30498 53.4162 4.30498 56.1072ZM55.47 48.2592C55.684 48.2412 55.899 48.2252 56.118 48.2252C60.464 48.2252 64 51.7612 64 56.1072C64 60.4532 60.464 63.9892 56.118 63.9892C51.772 63.9892 48.237 60.4532 48.237 56.1072C48.237 53.0342 50.01 50.3722 52.583 49.0732L51.931 46.7532L42.381 56.3652C41.544 57.2092 40.38 57.6932 39.189 57.6932H16.909C16.173 61.2812 12.991 63.9892 9.18698 63.9892C4.84098 63.9892 1.30498 60.4532 1.30498 56.1072C1.30498 51.7612 4.84098 48.2252 9.18698 48.2252C13.05 48.2252 16.266 51.0202 16.935 54.6932H19.373C18.68 49.6842 14.383 45.8122 9.18698 45.8122C6.72498 45.8122 4.34198 46.6952 2.47798 48.2992C1.84898 48.8372 0.901984 48.7662 0.362984 48.1392C-0.177016 47.5102 -0.106016 46.5642 0.521984 46.0232C2.92998 43.9532 6.00698 42.8122 9.18698 42.8122C16.04 42.8122 21.696 48.0252 22.405 54.6932H39.189C39.592 54.6932 39.97 54.5362 40.252 54.2512L50.998 43.4342L47.466 30.8712L43.042 15.1722C43.0364 15.1522 43.0336 15.1321 43.0309 15.1122C43.0287 15.0964 43.0265 15.0807 43.023 15.0652L39.734 3.36524C39.674 3.15024 39.475 3.00024 39.252 3.00024H33.818C32.99 3.00024 32.318 2.32824 32.318 1.50024C32.318 0.672244 32.99 0.000244141 33.818 0.000244141H39.252C40.813 0.000244141 42.199 1.05024 42.622 2.55224L45.534 12.9112L54.825 10.2932C55.594 10.0752 56.403 10.1712 57.102 10.5622C57.801 10.9542 58.305 11.5932 58.522 12.3632L62.985 28.2002C63.432 29.7902 62.503 31.4492 60.914 31.8972H60.913L51.608 34.5192L55.47 48.2592ZM52.3481 23.9091H51.2401C50.6801 23.9091 50.1661 23.5971 49.9081 23.0991C49.6511 22.6021 49.6911 22.0031 50.0141 21.5451L52.4421 18.1011C52.9201 17.4251 53.8551 17.2631 54.5321 17.7401C55.2101 18.2181 55.3711 19.1531 54.8941 19.8301L54.1331 20.9091H55.4241C55.9971 20.9091 56.5201 21.2361 56.7721 21.7521C57.0231 22.2661 56.9591 22.8811 56.6061 23.3331L53.8911 26.8071C53.5951 27.1851 53.1541 27.3841 52.7081 27.3841C52.3851 27.3841 52.0601 27.2801 51.7861 27.0651C51.1331 26.5551 51.0171 25.6131 51.5271 24.9601L52.3481 23.9091Z" fill="black"/>
</svg>

<svg width="64" height="64" viewBox="0 0 64 64" fill="none" xmlns="http://www.w3.org/2000/svg"><path fill-rule="evenodd" clip-rule="evenodd" d="M51.237 56.107a4.887 4.887 0 0 0 4.881 4.882A4.887 4.887 0 0 0 61 56.107c0-2.626-2.089-4.76-4.691-4.862l1.253 4.456a1.5 1.5 0 1 1-2.888.812l-1.256-4.467a4.878 4.878 0 0 0-2.181 4.061ZM60.1 29.01l-4.466-15.833-9.289 2.621 3.787 13.472.666 2.362L60.1 29.01ZM4.305 56.107a4.887 4.887 0 0 0 4.882 4.882c2.134 0 3.932-1.385 4.595-3.296H9.216a1.5 1.5 0 0 1 0-3h4.62c-.611-1.999-2.452-3.468-4.649-3.468a4.888 4.888 0 0 0-4.882 4.882ZM55.47 48.26a7.7 7.7 0 0 1 .648-.034c4.346 0 7.882 3.536 7.882 7.882s-3.536 7.882-7.882 7.882-7.881-3.536-7.881-7.882c0-3.073 1.773-5.735 4.346-7.034l-.652-2.32-9.55 9.612a4.525 4.525 0 0 1-3.192 1.328h-22.28c-.736 3.588-3.918 6.296-7.722 6.296-4.346 0-7.882-3.536-7.882-7.882s3.536-7.882 7.882-7.882c3.863 0 7.079 2.795 7.748 6.468h2.438c-.693-5.009-4.99-8.88-10.186-8.88A10.29 10.29 0 0 0 2.478 48.3a1.501 1.501 0 0 1-1.956-2.276 13.298 13.298 0 0 1 8.665-3.21c6.853 0 12.509 5.212 13.218 11.88h16.784c.403 0 .781-.157 1.063-.442l10.746-10.817-3.532-12.563-4.424-15.699a.439.439 0 0 1-.011-.06.569.569 0 0 0-.008-.047l-3.289-11.7A.502.502 0 0 0 39.252 3h-5.434a1.5 1.5 0 0 1 0-3h5.434a3.514 3.514 0 0 1 3.37 2.552l2.912 10.36 9.291-2.619a2.974 2.974 0 0 1 2.277.27 2.977 2.977 0 0 1 1.42 1.8L62.985 28.2a3.002 3.002 0 0 1-2.071 3.697h-.001l-9.305 2.622 3.862 13.74Zm-3.122-24.35H51.24a1.5 1.5 0 0 1-1.226-2.364l2.428-3.444a1.5 1.5 0 0 1 2.452 1.73l-.76 1.078h1.29a1.5 1.5 0 0 1 1.182 2.424l-2.715 3.474a1.5 1.5 0 1 1-2.364-1.847l.821-1.05Z" fill="currentColor"/></svg>
